X:1
T:39
T:Hugo Distler
T:Ps. 42:1-2
T:39.  As the Hart Crieth for Streams of Water Wie der Hirsch schreiet nach frischem Wasser Day of Atonement
T:Bärenreiter
T:Bärenreiter
T:Bärenreiter
T:Bärenreiter
C:Hugo Distler
Z:Ps. 42:1-2
Z:Bärenreiter
%%score [ 1 ( 2 3 ) 4 ]
L:1/8
Q:1/4=120
M:2/2
K:C
V:1 treble nm="Sop."
V:2 treble nm="Alto"
V:3 treble 
V:4 bass nm="Bar."
V:1
 z2"^Fast (Rasch)"!f! G3 G G2 | (_A4 c4- | c2 d2 c2 G2 | F2 G4) !breath!G2 | GG G2 _A4 | %5
w: As the hart|cri- *||* * eth,|as the hart cri-|
 !breath!GGGG _B4 | !breath!G2 G2 G2 !breath!G2 |[M:2/4] !breath!_A2 A2 |[M:3/4] !breath!_B4 B2 | %9
w: eth for- streams of wa-|ter, so cri- eth,|God, my|soul, my|
[M:2/2] c6 c2 |[M:6/4] !breath!d12!fine! ||[M:2/4]"^Quietly, peacefully (Ruhig)" z4 |[M:4/4] z8 | %13
w: soul for|Thee!|||
 z4!p! G4 | _B6 =A2- | AA G2 A4- | !breath!A2 A3 A A2 | (_B4 A2) G2 | !breath!^F6!mf! d2 | %19
w: My|soul thirst-|* eth for God,|_ yea, for the|liv- * ing|God. When|
[M:5/4] _B3 B B2 A2 G2 | d4!>(! d2!>)! z2 d2 | _B3 B B2 A2 G2 | %22
w: shall I come to be-|hold Him, when|shall I come to be-|
!>(! d4"^more tranquil\n(Noch mehr beruhigen)" d2!>)! z4 | z10 | z2!p! G2 G2 G2 G2 | %25
w: hold Him,||to be hold the|
"^Very softly (sehr ruhig)" (_B4 c2 B2 G2 | F2 G6!>(! F2) | _E6 D4!>)!!D.C.! |] %28
w: face _ _ _|_ _ _|of God?|
V:2
 z2!f! D3 D D2 | (_E4 F4- | F2 G2 F2 D2 | C2 D4) !breath!D2 | DD C2 _E4 | !breath!DDDD _E2 F2 | %6
w: As the hart|cri- *||* * eth,|as the hart cri-|eth for- streams of wa- *|
 !breath!D2 D2 D2 !breath!C2 |[M:2/4] !breath!_A2 A2 |[M:3/4] (_G2 !breath!F2) _B2 | %9
w: ter, so cri- eth,|God, my|soul, _ my|
[M:2/2] (_A2 G4) c2 |[M:6/4] !breath!=B12 ||[M:2/4] z4 |[M:4/4] z4!p! C4 | _E6 D2- | %14
w: soul _ for|Thee!||My|soul thirst-|
 DD C2 !breath!G4 | F3 F F2 (=A2- | A_B c3 B AG | F2 G2) E4 | !breath!A6!mf! _B2 | %19
w: * eth for God,|yea, for the liv-||* * ing|God. *|
[M:5/4] A3 A G2 F2 _E2 | G4!>(! D2!>)! z2 _B2 | A3 A G2 F2 _E2 |!>(! G4!>)! D2 z4 | z10 | %24
w: shall I come to be-|hold Him, when|shall I come to be-|hold Him,||
 z2!p! G2 G2 F2 D2 | (G6 F2 _E2 | D2 _E6!>(! D2) | C6 G4!>)! |] %28
w: to be hold the|face _ _|_ _ _|of God?|
V:3
 x8 | x8 | x8 | x8 | x8 | x8 | x8 |[M:2/4] x4 |[M:3/4] x6 |[M:2/2] x8 |[M:6/4] x12 ||[M:2/4] x4 | %12
[M:4/4] x8 | x8 | x8 | x8 | x8 | x8 | !breath!D6 x2 |[M:5/4] x10 | x10 | x10 | x10 | x10 | x10 | %25
 x10 | x10 | C6 =B,4 |] %28
V:4
 z2!f! G,3 G, F,2 | !>!G,8 | !breath!G,2 G,3 G, F,2 | !>!G,8 | !breath!G,2 G,3 G, F,2 | !>!G,8 | %6
w: As the hart|cri-|eth, as the hart|cri-|eth, as the hart|cri-|
 !breath!G,3 G, G,!breath!G, G,2- |[M:2/4] !breath!G,2 (F,2 |[M:3/4] _E,2) (F,4 |[M:2/2] F,4) F,4 | %10
w: eth, so cri- eth, God,|_ my|_ soul|_ for|
[M:6/4] !breath!G,12 ||[M:2/4]!p! G,4 |[M:4/4] _A,6 G,2- | G,G, F,2 (C,2 G,2- | G,2) z2 z4 | %15
w: Thee!|My|soul thirst-|* eth for God, _|_|
 z2 D,3 D, D,2 | (F,4 =E,2 D,2- | D,2 D,2) C,4 | D,8 |[M:5/4] z8!mf! D2 | _B,3 B, B,2 A,2 G,2 | %21
w: yea, for the|liv- * *|* * ing|God.|When|shall I come to be-|
!>(! F,4!>)! G,2 z2 D2 | _B,3 B, B,2 A,2 G,2 | (F,4!>(! _E,2 G,4)!>)! | %24
w: hold Him, when|shall I come to be-|hold _ _|
 !breath!G,2!p! G,2 G,2 G,2 G,2 | (G,4 F,3 G, _A,2 | _B,2 G,6!>(! B,2) | C6 G,4!>)! |] %28
w: Him, to be- hold the|face _ _ _|_ _ _|of God?|

